www/assets/icons/lightbulb_circle.svg

<svg xmlns="http://www.w3.org/2000/svg" width="24" height="24" viewBox="0 0 24 24" fill='currentColor'><path d="M12 2C6.48 2 2 6.48 2 12s4.48 10 10 10 10-4.48 10-10S17.52 2 12 2m0 17c-.83 0-1.5-.67-1.5-1.5h3c0 .83-.67 1.5-1.5 1.5m3-2.5H9V15h6zm-.03-2.5H9.03A4.97 4.97 0 0 1 7 10c0-2.76 2.24-5 5-5s5 2.24 5 5c0 1.64-.8 3.09-2.03 4"/></svg>

<svg width="24" height="24" viewBox="0 0 24 24" xmlns="http://www.w3.org/2000/svg" fill='currentColor'><path d="M12 2C6.48 2 2 6.48 2 12C2 17.52 6.48 22 12 22C17.52 22 22 17.52 22 12C22 6.48 17.52 2 12 2ZM12 19C11.17 19 10.5 18.33 10.5 17.5H13.5C13.5 18.33 12.83 19 12 19ZM15 16.5H9V15H15V16.5ZM14.97 14H9.03C7.8 13.09 7 11.64 7 10C7 7.24 9.24 5 12 5C14.76 5 17 7.24 17 10C17 11.64 16.2 13.09 14.97 14Z"/></svg>
